X:1
T:Orrington, SM
T:Orrington, SM
T:Carl Friedrich Zelter (1758-1832)
T:Public Domain Courtesy of the Cyber Hymnal™
C:Carl Friedrich Zelter (1758-1832)
Z:Public Domain
Z:Courtesy of the Cyber Hymnal™
%%score ( 1 2 ) 3
L:1/8
Q:1/4=105
M:3/4
K:Bb
V:1 treble 
V:2 treble 
V:3 bass 
V:1
 [DG]3 | [GB]2 [GB] [FA]2 [FA] | G3 ^F3 | G2 G [DB]2 [DB] | [DA]3 [FA]3 | [GB]2 [GB] [Ac]2 [Ac] | %6
 [Bd]2 [Bd] [Ac]2 [Ac] | [GB]3 [FA]3 | [DG]3 [D^F]3 | !fermata![DG]3 |] %10
V:2
 x3 | x6 | G3 ^F3 | G2 G x3 | x6 | x6 | x6 | x6 | x6 | x3 |] %10
V:3
 [G,B,]3 | [G,D]2 [G,D] [D,D]2 [D,C] | [G,D]3 [A,C]3 | [B,D]2 [B,D] [G,D]2 [G,D] | [D,D]3 [D,D]3 | %5
 [G,D]2 [G,D] [F,F]2 [F,F] | [B,F]2 [B,F] !fermata![F,F]2 [F,F] | [G,D]3 [C,C]3 | [D,B,]3 [D,A,]3 | %9
 !fermata![G,,G,]3 |] %10

